src/img/exito.svg

<?xml version="1.0"?>
<svg xmlns="http://www.w3.org/2000/svg" xmlns:xlink="http://www.w3.org/1999/xlink" xmlns:svgjs="http://svgjs.com/svgjs" version="1.1" width="512" height="512" x="0" y="0" viewBox="0 0 512 512" style="enable-background:new 0 0 512 512" xml:space="preserve" class=""><g><linearGradient xmlns="http://www.w3.org/2000/svg" id="SVGID_1_" gradientUnits="userSpaceOnUse" x1="432.334" x2="198.334" y1="502.645" y2="192.646"><stop stop-opacity="1" stop-color="#ebffd2" offset="0"/><stop stop-opacity="1" stop-color="#dcffb7" offset="1"/></linearGradient><g xmlns="http://www.w3.org/2000/svg"><path d="m501.873 153.583c-22.357-56.888-91.226-91.003-149.556-68.427-66.582 25.77-44.506 131.673-104.983 153.088-32.669 11.568-80.962-31.644-113.969-38.271-60.821-12.21-115.881 30.705-129.439 90.134-13.832 60.63 8.353 141.61 74.967 158.066 79.35 19.602 120.683-51.729 187.249-72.211 68.31-21.019 144.263 28.622 200.814-31.776 41.78-44.62 57.055-134.271 34.917-190.603z" fill="url(#SVGID_1_)" data-original="url(#SVGID_1_)" style=""/><g><path d="m476.847 178.593c0-39.497-32.019-71.517-71.517-71.517-30.6 0-56.699 19.225-66.91 46.25h-258.608c-11.046 0-20 8.954-20 20v221.41c0 11.046 8.954 20 20 20h352.375c11.046 0 20-8.954 20-20v-162.14c15.099-13.113 24.66-32.435 24.66-54.003z" fill="#26bc5a" opacity=".1" data-original="#2626bc" style="" class=""/><g><g fill="#fff"><path d="m432.187 389.736h-352.375c-11.046 0-20-8.954-20-20v-221.41c0-11.046 8.954-20 20-20h352.375c11.046 0 20 8.954 20 20v221.41c0 11.046-8.954 20-20 20z" fill="#ffffff" data-original="#ffffff" style="" class=""/><path d="m262.092 223.711 190.096 146.025c0 11.046-8.954 20-20 20h-352.376c-11.046 0-20-8.954-20-20l190.096-146.025c3.593-2.76 8.591-2.76 12.184 0z" fill="#ffffff" data-original="#ffffff" style="" class=""/><path d="m249.908 294.352-190.096-146.026c0-11.046 8.954-20 20-20h352.375c11.046 0 20 8.954 20 20l-190.095 146.026c-3.593 2.759-8.591 2.759-12.184 0z" fill="#ffffff" data-original="#ffffff" style="" class=""/></g><g><path d="m370.947 363.125h-32.134c-2.762 0-5-2.238-5-5v-22.154c0-2.761 2.238-5 5-5h32.134c2.762 0 5 2.239 5 5v22.154c0 2.762-2.238 5-5 5z" fill="#6592fe" data-original="#6583fe" style="" class=""/><g><g><g><path d="m311.871 342.743h-27.833c-2.762 0-5-2.239-5-5s2.238-5 5-5h27.833c2.762 0 5 2.239 5 5s-2.238 5-5 5z" fill="#26bc5a" data-original="#2626bc" style="" class=""/></g></g><g><g><path d="m311.871 363.125h-97.833c-2.762 0-5-2.239-5-5s2.238-5 5-5h97.833c2.762 0 5 2.239 5 5 0 2.762-2.238 5-5 5z" fill="#26bc5a" data-original="#2626bc" style="" class=""/></g></g></g></g><g><ellipse cx="405.33" cy="153.593" fill="#6592fe" rx="71.517" ry="71.517" transform="matrix(.16 -.987 .987 .16 188.793 529.087)" data-original="#6583fe" style="" class=""/><path d="m405.33 230.11c42.191 0 76.517-34.325 76.517-76.517s-34.325-76.517-76.517-76.517-76.517 34.325-76.517 76.517c0 24.544 11.629 46.41 29.653 60.421l-99.42 76.372c-1.791 1.378-4.297 1.379-6.092 0l-187.962-144.386c1.121-7.17 7.341-12.674 14.82-12.674h229.366c2.762 0 5-2.239 5-5s-2.238-5-5-5h-229.366c-13.785 0-25 11.215-25 25v221.41c0 13.785 11.215 25 25 25h352.375c13.785 0 25-11.215 25-25v-132.14c0-2.761-2.238-5-5-5s-5 2.239-5 5v121.994l-130.907-100.559 50.94-39.13c11.23 6.48 24.239 10.209 38.11 10.209zm-209.61 28.921-130.908 100.559v-201.118zm251.27 113.018c-1.118 7.174-7.32 12.687-14.803 12.687h-352.375c-7.483 0-13.685-5.513-14.803-12.687l138.919-106.713 42.934 32.98c2.69 2.066 5.914 3.1 9.138 3.1s6.447-1.033 9.138-3.1l42.934-32.981zm-108.177-218.456c0-36.677 29.839-66.517 66.517-66.517s66.517 29.839 66.517 66.517c0 36.677-29.839 66.517-66.517 66.517s-66.517-29.84-66.517-66.517z" fill="#26bc5a" data-original="#2626bc" style="" class=""/></g><path d="m374.114 129.204 10.206 24.389-10.206 24.389c-1.733 4.142 2.448 8.292 6.577 6.528l61.619-26.319c4.048-1.729 4.048-7.467 0-9.196l-61.619-26.319c-4.129-1.764-8.31 2.386-6.577 6.528z" fill="#ffffff" data-original="#ffffff" style="" class=""/></g><g fill="#6583fe"><path d="m330.828 81.671c-3.714 0-7.427-1.413-10.253-4.24-5.654-5.654-5.654-14.853 0-20.506 5.651-5.652 14.852-5.654 20.505 0 5.654 5.654 5.654 14.853 0 20.506-2.826 2.827-6.539 4.24-10.252 4.24zm0-18.991c-1.152 0-2.305.438-3.183 1.316-1.754 1.754-1.754 4.609 0 6.364 1.756 1.754 4.608 1.755 6.364 0 1.754-1.754 1.754-4.609 0-6.364-.877-.877-2.03-1.316-3.181-1.316z" fill="#6592fe" data-original="#6583fe" style="" class=""/><path d="m218.538 459.315c-3.713 0-7.427-1.414-10.253-4.24-5.654-5.654-5.654-14.853 0-20.506 5.652-5.653 14.854-5.653 20.506 0 5.654 5.654 5.654 14.853 0 20.506-2.826 2.827-6.54 4.24-10.253 4.24zm0-18.991c-1.152 0-2.305.438-3.183 1.316-1.754 1.754-1.754 4.609 0 6.364 1.756 1.755 4.609 1.755 6.365 0 1.754-1.754 1.754-4.609 0-6.364-.877-.877-2.03-1.316-3.182-1.316z" fill="#6592fe" data-original="#6583fe" style="" class=""/><path d="m294.78 94.547c-1.279 0-2.56-.488-3.535-1.464l-5.965-5.964-5.965 5.964c-1.951 1.952-5.119 1.952-7.07 0-1.953-1.953-1.953-5.119 0-7.071l9.5-9.5c1.951-1.952 5.119-1.952 7.07 0l9.5 9.5c1.953 1.953 1.953 5.119 0 7.071-.975.975-2.255 1.464-3.535 1.464z" fill="#6592fe" data-original="#6583fe" style="" class=""/><path d="m439.746 440.322c-1.279 0-2.56-.488-3.535-1.464l-5.965-5.964-5.965 5.964c-1.951 1.952-5.119 1.952-7.07 0-1.953-1.953-1.953-5.119 0-7.071l9.5-9.5c1.951-1.952 5.119-1.952 7.07 0l9.5 9.5c1.953 1.953 1.953 5.119 0 7.071-.975.975-2.256 1.464-3.535 1.464z" fill="#6592fe" data-original="#6583fe" style="" class=""/><path d="m178.884 445.072c-1.279 0-2.56-.488-3.535-1.464l-5.965-5.964-5.965 5.964c-1.951 1.952-5.119 1.952-7.07 0-1.953-1.953-1.953-5.119 0-7.071l9.5-9.5c1.951-1.952 5.119-1.952 7.07 0l9.5 9.5c1.953 1.953 1.953 5.119 0 7.071-.976.975-2.256 1.464-3.535 1.464z" fill="#6592fe" data-original="#6583fe" style="" class=""/></g></g></g></g></svg>

<svg xmlns="http://www.w3.org/2000/svg" xmlns:xlink="http://www.w3.org/1999/xlink" width="512" height="406.63" viewBox="0 0 512 406.63">
  <defs>
    <linearGradient id="linear-gradient" x1="0.844" y1="1.137" x2="0.387" y2="0.307" gradientUnits="objectBoundingBox">
      <stop offset="0" stop-color="#ebffd2"/>
      <stop offset="1" stop-color="#dcffb7"/>
    </linearGradient>
  </defs>
  <g id="exito" transform="translate(0 -52.685)">
    <g id="Grupo_13" data-name="Grupo 13">
      <path id="Trazado_10" data-name="Trazado 10" d="M501.873,153.583c-22.357-56.888-91.226-91-149.556-68.427-66.582,25.77-44.506,131.673-104.983,153.088-32.669,11.568-80.962-31.644-113.969-38.271C72.544,187.763,17.484,230.678,3.926,290.107c-13.832,60.63,8.353,141.61,74.967,158.066,79.35,19.6,120.683-51.729,187.249-72.211,68.31-21.019,144.263,28.622,200.814-31.776,41.78-44.62,57.055-134.271,34.917-190.6Z" fill="url(#linear-gradient)"/>
      <g id="Grupo_12" data-name="Grupo 12">
        <path id="Trazado_11" data-name="Trazado 11" d="M476.847,178.593A71.52,71.52,0,0,0,338.42,153.326H79.812a20,20,0,0,0-20,20v221.41a20,20,0,0,0,20,20H432.187a20,20,0,0,0,20-20V232.6a71.332,71.332,0,0,0,24.66-54Z" fill="#26bc5a" opacity="0.1"/>
        <g id="Grupo_10" data-name="Grupo 10">
          <g id="Grupo_2" data-name="Grupo 2">
            <path id="Trazado_12" data-name="Trazado 12" d="M432.187,389.736H79.812a20,20,0,0,1-20-20V148.326a20,20,0,0,1,20-20H432.187a20,20,0,0,1,20,20v221.41A20,20,0,0,1,432.187,389.736Z" fill="#fff"/>
            <path id="Trazado_13" data-name="Trazado 13" d="M262.092,223.711l190.1,146.025a20,20,0,0,1-20,20H79.812a20,20,0,0,1-20-20l190.1-146.025a10,10,0,0,1,12.184,0Z" fill="#fff"/>
            <path id="Trazado_14" data-name="Trazado 14" d="M249.908,294.352,59.812,148.326a20,20,0,0,1,20-20H432.187a20,20,0,0,1,20,20l-190.1,146.026A10,10,0,0,1,249.908,294.352Z" fill="#fff"/>
          </g>
          <g id="Grupo_8" data-name="Grupo 8">
            <path id="Trazado_15" data-name="Trazado 15" d="M370.947,363.125H338.813a5,5,0,0,1-5-5V335.971a5,5,0,0,1,5-5h32.134a5,5,0,0,1,5,5v22.154A5,5,0,0,1,370.947,363.125Z" fill="#6592fe"/>
            <g id="Grupo_7" data-name="Grupo 7">
              <g id="Grupo_4" data-name="Grupo 4">
                <g id="Grupo_3" data-name="Grupo 3">
                  <path id="Trazado_16" data-name="Trazado 16" d="M311.871,342.743H284.038a5,5,0,0,1,0-10h27.833a5,5,0,0,1,0,10Z" fill="#26bc5a"/>
                </g>
              </g>
              <g id="Grupo_6" data-name="Grupo 6">
                <g id="Grupo_5" data-name="Grupo 5">
                  <path id="Trazado_17" data-name="Trazado 17" d="M311.871,363.125H214.038a5,5,0,0,1,0-10h97.833a5,5,0,0,1,0,10Z" fill="#26bc5a"/>
                </g>
              </g>
            </g>
          </g>
          <g id="Grupo_9" data-name="Grupo 9">
            <circle id="Elipse_1" data-name="Elipse 1" cx="71.517" cy="71.517" r="71.517" transform="matrix(0.16, -0.987, 0.987, 0.16, 323.212, 212.746)" fill="#6592fe"/>
            <path id="Trazado_18" data-name="Trazado 18" d="M405.33,230.11a76.646,76.646,0,1,0-46.864-16.1l-99.42,76.372a5,5,0,0,1-6.092,0L64.992,146a15.025,15.025,0,0,1,14.82-12.674H309.178a5,5,0,0,0,0-10H79.812a25.028,25.028,0,0,0-25,25v221.41a25.028,25.028,0,0,0,25,25H432.187a25.028,25.028,0,0,0,25-25V237.6a5,5,0,0,0-10,0V359.59L316.28,259.031l50.94-39.13a76.017,76.017,0,0,0,38.11,10.209ZM195.72,259.031,64.812,359.59V158.472ZM446.99,372.049a15.01,15.01,0,0,1-14.8,12.687H79.812a15.01,15.01,0,0,1-14.8-12.687L203.928,265.336l42.934,32.98a15.018,15.018,0,0,0,18.276,0l42.934-32.981ZM338.813,153.593A66.517,66.517,0,1,1,405.33,220.11,66.592,66.592,0,0,1,338.813,153.593Z" fill="#26bc5a"/>
          </g>
          <path id="Trazado_19" data-name="Trazado 19" d="M374.114,129.2l10.206,24.389-10.206,24.389a5,5,0,0,0,6.577,6.528l61.619-26.319a5,5,0,0,0,0-9.2l-61.619-26.319A5,5,0,0,0,374.114,129.2Z" fill="#fff"/>
        </g>
        <g id="Grupo_11" data-name="Grupo 11">
          <path id="Trazado_20" data-name="Trazado 20" d="M330.828,81.671a14.493,14.493,0,1,1,10.252-4.24A14.451,14.451,0,0,1,330.828,81.671Zm0-18.991A4.5,4.5,0,1,0,334.009,64,4.487,4.487,0,0,0,330.828,62.68Z" fill="#6592fe"/>
          <path id="Trazado_21" data-name="Trazado 21" d="M218.538,459.315a14.493,14.493,0,1,1,10.253-4.24,14.457,14.457,0,0,1-10.253,4.24Zm0-18.991a4.5,4.5,0,1,0,3.182,1.316A4.487,4.487,0,0,0,218.538,440.324Z" fill="#6592fe"/>
          <path id="Trazado_22" data-name="Trazado 22" d="M294.78,94.547a4.983,4.983,0,0,1-3.535-1.464l-5.965-5.964-5.965,5.964a5,5,0,0,1-7.07-7.071l9.5-9.5a5,5,0,0,1,7.07,0l9.5,9.5a5,5,0,0,1-3.535,8.535Z" fill="#6592fe"/>
          <path id="Trazado_23" data-name="Trazado 23" d="M439.746,440.322a4.983,4.983,0,0,1-3.535-1.464l-5.965-5.964-5.965,5.964a5,5,0,0,1-7.07-7.071l9.5-9.5a5,5,0,0,1,7.07,0l9.5,9.5a5,5,0,0,1-3.535,8.535Z" fill="#6592fe"/>
          <path id="Trazado_24" data-name="Trazado 24" d="M178.884,445.072a4.983,4.983,0,0,1-3.535-1.464l-5.965-5.964-5.965,5.964a5,5,0,0,1-7.07-7.071l9.5-9.5a5,5,0,0,1,7.07,0l9.5,9.5a5,5,0,0,1-3.535,8.535Z" fill="#6592fe"/>
        </g>
      </g>
    </g>
  </g>
</svg>
